X: 167
T: A Dram At The Wake
R: polka
M: 2/4
K: Dmajor
B|ADDE FAdB|ADDF EFDB|ADDE FAdB|
AFdB AFEB|ADDE FAdB|ADDF EFDB|
ADDE FAdB|AFdB AFEe||fddB AdFd|
AdFd EFGe|fddB Adef|gfed B2 de|
fddB AdFd|AdFd EFGf|afdf AdFd|AFdB AFE||

